remix/Design/input-method-fill.svg

<svg viewBox="0 0 24 24" fill="currentColor" xmlns="http://www.w3.org/2000/svg"><path d="M4 3H20C20.5523 3 21 3.44772 21 4V20C21 20.5523 20.5523 21 20 21H4C3.44772 21 3 20.5523 3 20V4C3 3.44772 3.44772 3 4 3ZM9.86885 15H14.1311L14.9508 17H17.1667L13 7H11L6.83333 17H9.04918L9.86885 15ZM10.6885 13L12 9.8L13.3115 13H10.6885Z"/></svg>

<svg viewBox="0 0 24 24" xmlns="http://www.w3.org/2000/svg"><path fill="none" d="M0 0h24v24H0Z"/><path d="M4 3h16v0c.55 0 1 .44 1 1v16 0c0 .55-.45 1-1 1H4v0c-.56 0-1-.45-1-1V4v0c0-.56.44-1 1-1Zm5.869 12h4.26l.82 2h2.21L12.98 7h-2L6.82 17h2.21l.82-2Zm.82-2L12 9.8l1.311 3.2h-2.63Z"/></svg>
